!!!!SEGMENT: pl-gd--ee-1638--002-042_marenzio-luca--motettorum-pro-festis-totius-anni-in-dedicatione-templi-o-quam-metuendus.krn
!!!cenid: 15xx:1045
!!!COM: Marenzio, Luca
!!!COM-rismID: pe30003955
!!!CDT: ~1553-1599/08/22
!!!CNT: Italian
!!!GTL: Motettorum pro festis totius anni
!!!OTL: In Dedicatione Templi/O quam metuendus
!!!OMV: 042
!!!PDT: 1588
!!!AGN:
!!!YEC: Copyright 2022 Narodowy Instytut Fryderyka Chopina (https://polishscores.org)
!!!YEM: License CC-BY-4.0 (https://creativecommons.org/licenses/by/4.0)
!!!SMS-siglum: PL-GD
!!!SMS-shelfmark: Ee 1638
!!!SMS-variant:
!!!SMS-altvar:
!!!SMS-shelfwork: 002-042 G
!!!NIFC-rismSourceID: 1001202747
!!!NIFC-rismChildID: 990039238
!!!NIFC-islandoraID: pl-gd:57883
!!!URL-pdf-islandora: https://repozytorium.nifc.pl/islandora/object/pl-gd%3A57883/datastream/PDF/view
!!!URL-scan: https://polish.musicsources.pl/pl/lokalizacje/galeria/klocki-introligatorskie/655 @EN{Scan on Polish Music Sources Website} @PL{Skany w portalu Dziedzictwo Muzyki Polskiej w otwartym dostępie}
!!!IIIF: https://repozytorium.nifc.pl/islandora/object/pl-gd%3A57883/datastream/IIIF/view
!!!ONB-nifc: UWAGA: Cantus: s. 637, Altus: s. 485, Tenor: s. 333, Bassus: s. 181
!!!AIN: 1 alto 1 bass 1 soprn 1 tenor
!!!key: a:phr
**kern	**text	**kern	**text	**kern	**text	**kern	**text
*part4	*part4	*part3	*part3	*part2	*part2	*part1	*part1
*staff4	*staff4	*staff3	*staff3	*staff2	*staff2	*staff1	*staff1
*ICvox	*	*ICvox	*	*ICvox	*	*ICvox	*
*Ibass	*	*Itenor	*	*Ialto	*	*Isoprn	*
*I"BASSVS	*	*I"TENOR	*	*I"ALTVS	*	*I"CANTVS	*
*mI"Basso	*	*mI"Tenore	*	*mI"Alto	*	*mI"Soprano	*
*I'B	*	*I'T	*	*I'A	*	*I'S	*
*clefF4	*	*clefC4	*	*clefC3	*	*clefC1	*
*	*	*mclefGv2	*	*mclefGv2	*	*mclefG2	*
*k[b-]	*	*k[b-]	*	*k[b-]	*	*k[b-]	*
*a:phr	*	*a:phr	*	*a:phr	*	*a:phr	*
*M2/1	*	*M2/1	*	*M2/1	*	*M2/1	*
*met(C|)	*	*met(C|)	*	*met(C|)	*	*met(C|)	*
*mmet(c|)	*	*mmet(c|)	*	*mmet(c|)	*	*mmet(c|)	*
=1-	=1-	=1-	=1-	=1-	=1-	=1-	=1-
*xywh-#181:1106,527,3363,856	*	*xywh-#333:1000,469,3473,883	*	*xywh-#485:1106,509,3448,854	*	*xywh-#637:1083,504,3454,900	*
!LO:TX:t=P:problem=przy kluczu BB- B-	!	!	!	!	!	!	!
!LO:TX:a:i:mod= :t=In Dedicatione Templi.	!	!LO:TX:a:i:mod= :t=In Dedicatione Templi.	!	!LO:TX:a:i:mod= :t=In Dedicatione Templi.	!	!LO:TX:a:i:mod= :t=In Dedicatione Templi.	!
0r	.	00r	.	1r	.	0e	O
.	.	.	.	0A	O	.	.
=2-	=2-	=2-	=2-	=2-	=2-	=2-	=2-
!	!	!	!	!	!	!	!LO:SIC:s=quam
1r	.	.	.	.	.	1e	Qua(m)
!	!	!	!	!	!LO:SIC:s=quam	!	!
0AA	O	.	.	1A	Quam	1.cc	me-
=3-	=3-	=3-	=3-	=3-	=3-	=3-	=3-
.	.	0E	O	1.c	me-	.	.
.	.	.	.	.	.	2b-\	-tu-
!	!LO:SIC:s=quam	!	!	!	!	!	!
1AA	Qua(m)	.	.	.	.	1.a	-en-
.	.	.	.	2d\	-tu-	.	.
=4-	=4-	=4-	=4-	=4-	=4-	=4-	=4-
!	!	!	!LO:SIC:s=quam	!	!	!	!
1.C	me-	1E	Qua(m)	2.e\	-en-	.	.
.	.	.	.	.	.	4g/	.
.	.	.	.	4f\	.	4f/	.
.	.	1.c	me-	2g\	.	2e/	.
2D/	-tu-	.	.	2f\	-dus	2a\	dus
=5-	=5-	=5-	=5-	=5-	=5-	=5-	=5-
1E	-en-	.	.	2.e\	eſt	2g/	eſt
.	.	2B-\	-tu-	.	.	1g\	me-
.	.	.	.	4d\	.	.	.
1F	-dus	1.A	-en-	0.c	.	.	.
.	.	.	.	.	.	2f/	-tu-
=6-	=6-	=6-	=6-	=6-	=6-	=6-	=6-
0.C	eſt	.	.	.	.	2.e/	-en-
.	.	4G/	.	.	.	.	.
.	.	4F/	.	.	.	4f/	.
.	.	2E/	.	.	.	2g/	.
.	.	2A/	-dus	.	.	1f/	-dus
=7-	=7-	=7-	=7-	=7-	=7-	=7-	=7-
.	.	2G/	eſt	1r	.	.	.
.	.	1c\	lo-	.	.	2e/	eſt
*	*	*	*	*	*ij	*custos:cc	*
*	*	*	*	*	*	*xywh-#637:1114,1172,3423,745	*
!	!	!	!	!	!LO:SIC:s=o	!LO:LB:g=original	!
1r	.	.	.	0A	O	2r	.
.	.	2c\	-cus	.	.	1cc\	lo-
*	*ij	*	*	*	*	*	*
!	!LO:SIC:s=o	!	!	!	!	!	!
0F	O	1c	i-	.	.	.	.
.	.	.	.	.	.	2cc\	-cus
!	!	!	!	!	!LO:SIC:s=quam	!	!
.	.	1F	-ſte	1A	Quam	0cc	i-
=8-	=8-	=8-	=8-	=8-	=8-	=8-	=8-
!	!LO:SIC:s=quam	!	!	!	!	!	!
1F	Qua(m)	2r	.	1.f	me-	.	.
.	.	1A\	lo-	.	.	.	.
1.D	me-	.	.	.	.	1f	-ſte
.	.	2A/	-cus	2e\	-tu-	.	.
*	*	*custos:A	*	*custos:d	*	*	*
!	!	!LO:LB:g=original	!	!LO:LB:g=original	!	!	!
=9-	=9-	=9-	=9-	=9-	=9-	=9-	=9-
*	*	*xywh-#333:1077,1191,3380,691	*	*xywh-#485:1161,1167,3401,721	*	*	*ij
.	.	1A	i-	0d	-en-	1.f	lo-
2C/	-tu-	.	.	.	.	.	.
1BB-	-en-	1D	-ſte	.	.	.	.
.	.	.	.	.	.	2d/	-cus
*custos:AA	*	*	*	*	*	*	*
!LO:LB:g=original	!	!	!	!	!	!	!
=10-	=10-	=10-	=10-	=10-	=10-	=10-	=10-
*xywh-#181:1083,1187,3395,730	*	*	*	*	*	*	*
1AA	-dus	1r	.	1c#X	-dus	1e	i-
!	!	!	!LO:SIC:s=o	!	!	!	!
1D	eſt	0A	O	2d\	eſt	1f	-ſte
*	*Xij	*	*	*	*Xij	*	*Xij
.	.	.	.	2f\	lo-	.	.
=11-	=11-	=11-	=11-	=11-	=11-	=11-	=11-
!	!	!	!	!	!	!	!LO:SIC:s=o
2r	.	.	.	2e\	-cus	0cc	O
1F\	lo-	.	.	1f\	i-	.	.
!	!	!	!LO:SIC:s=quam	!	!	!	!
.	.	1A	qua(m)	.	.	.	.
!	!	!	!	!LO:SIC:s=2ci	!	!	!
2F\	-cus	.	.	2cny/	-ſte	.	.
=12-	=12-	=12-	=12-	=12-	=12-	=12-	=12-
!	!	!	!	!	!	!	!LO:SIC:s=quam
0.F	i-	1.c	me-	2r	.	1cc	qua(m)
!	!	!	!	!	!LO:SIC:s=o	!	!
.	.	.	.	1A/	O	.	.
.	.	.	.	.	.	1.a	me-
!	!	!	!	!	!LO:SIC:s=quam	!	!
.	.	2d\	-tu-	2A/	qua(m)	.	.
=13-	=13-	=13-	=13-	=13-	=13-	=13-	=13-
.	.	1A	-en-	2f\	me-	.	.
.	.	.	.	2e\	-tu-	2g/	-tu-
1BB-	-ſte	1B-	-dus	2.d\	-en-	0f	-en-
.	.	.	.	4d\	-dus	.	.
=14-	=14-	=14-	=14-	=14-	=14-	=14-	=14-
0r	.	2.F/	eſt	2c/	eſt	.	.
.	.	.	.	1d\	lo-	.	.
.	.	4G/	.	.	.	.	.
.	.	1A	.	.	.	1e	-dus
.	.	.	.	4c/	.	.	.
.	.	.	.	4B-/	.	.	.
=15-	=15-	=15-	=15-	=15-	=15-	=15-	=15-
!	!LO:SIC:s=o	!	!	!	!	!	!
0D	O	2r	.	2A/	.	2f/	eſt
.	.	1d\	lo-	2F/	-cus	1a\	me-
*	*	*	*	*custos:B	*	*	*
*	*	*	*	*xywh-#485:1106,1685,3440,768	*	*	*
!	!	!	!	!LO:LB:g=original	!	!	!
.	.	.	.	1B-	i-	.	.
.	.	2d\	-cus	.	.	1g\	-tu-
=16-	=16-	=16-	=16-	=16-	=16-	=16-	=16-
!	!LO:SIC:s=quam	!	!	!	!	!	!
1D	qua(m)	1d	i-	1A	-ſte	.	.
.	.	.	.	.	.	1f/	-en-
1.B-	me-	0G	-ſte	1r	.	.	.
.	.	.	.	.	.	2e/	-dus
=17-	=17-	=17-	=17-	=17-	=17-	=17-	=17-
.	.	.	.	0B-	o	0d	eſt
2A\	-tu-	.	.	.	.	.	.
1.G	-en-	2r	.	.	.	.	.
.	.	1d\	me-	.	.	.	.
=18-	=18-	=18-	=18-	=18-	=18-	=18-	=18-
!	!	!	!	!	!LO:SIC:s=quam	!	!
.	.	.	.	1B-	qua(m)	1.dd	me-
4F\	.	2e\	-tu-	.	.	.	.
4E\	.	.	.	.	.	.	.
1D	.	1f	-en-	1.d	me-	.	.
.	.	.	.	.	.	2cc\	-tu-
*	*	*	*	*	*	*custos:b	*
!	!	!	!	!	!	!LO:LB:g=original	!
=19-	=19-	=19-	=19-	=19-	=19-	=19-	=19-
*	*	*	*	*	*	*xywh-#637:1130,1708,3385,768	*
1G	-dus	1B-	-dus	.	.	2.b-\	-en-
.	.	.	.	2e\	-tu-	.	.
.	.	.	.	.	.	4b-\	-dus
1F	eſt	2c\	eſt	1f	-en-	2a\	eſt
.	.	4B-\	.	.	.	1dd\	lo-
.	.	4A\	.	.	.	.	.
=20-	=20-	=20-	=20-	=20-	=20-	=20-	=20-
2r	.	1G	.	1g	-dus	.	.
1B-\	lo-	.	.	.	.	2dd\	-cus
*	*	*custos:G	*	*	*	*	*
*	*	*xywh-#333:1054,1690,3442,783	*	*	*	*	*
!	!	!LO:LB:g=original	!	!	!	!	!
.	.	1r	.	2.d\	eſt	0dd	i-
2B-\	-cus	.	.	.	.	.	.
.	.	.	.	4e\	.	.	.
*custos:B	*	*	*	*	*	*	*
!LO:LB:g=original	!	!	!	!	!	!	!
=21-	=21-	=21-	=21-	=21-	=21-	=21-	=21-
*xywh-#181:1028,1729,3458,746	*	*	*	*	*	*	*
1B-	i-	1r	.	1f	.	.	.
!LO:MO:mod=[1E-	!	!	!LO:SIC:s=o	!	!	!	!
0.E-X	-ſte	0G	O	2r	.	2.g/	-ſte
.	.	.	.	1g\	lo-	.	.
.	.	.	.	.	.	4a\	.
=22-	=22-	=22-	=22-	=22-	=22-	=22-	=22-
!LO:MO:null:mod=0E-]	!	!	!	!	!	!	!
.	.	.	.	.	.	1b-	.
.	.	.	.	2g\	-cus	.	.
!	!	!	!LO:SIC:s=quam	!	!	!	!
.	.	1G	qua(m)	1g	i-	2r	.
.	.	.	.	.	.	1g\	lo-
=23-	=23-	=23-	=23-	=23-	=23-	=23-	=23-
1r	.	1.e-X	me-	1.c	-ſte	.	.
.	.	.	.	.	.	2g/	-cus
*	*ij	*	*	*	*	*	*
0C	lo-	.	.	.	.	1g	i-
.	.	2d\	-tu-	4B-/	.	.	.
.	.	.	.	4A/	.	.	.
=24-	=24-	=24-	=24-	=24-	=24-	=24-	=24-
.	.	2c\	-en-	2G/	.	1e	-ſte
.	.	4B-\	.	1g\	lo-	.	.
.	.	4A\	.	.	.	.	.
*	*	*	*	*	*	*	*ij
1C	-cus	2G/	.	.	.	1.cc	lo-
.	.	2A/	-dus	1f\	-cus	.	.
=25-	=25-	=25-	=25-	=25-	=25-	=25-	=25-
00C\	i-	1G	eſt	.	.	.	.
*	*	*	*	*custos:e	*	*	*
*	*	*	*	*xywh-#485:1106,2225,3432,775	*	*	*
!	!	!	!	!LO:LB:g=original	!	!	!
.	.	.	.	2.e\	i-	2cc\	-cus
.	.	2.G/	lo-	.	.	0.cc	i-
.	.	.	.	4d\	.	.	.
.	.	.	.	4e\	.	.	.
.	.	4F/	.	4f\	.	.	.
=26-	=26-	=26-	=26-	=26-	=26-	=26-	=26-
.	.	2E/	.	2g\	.	.	.
.	.	2A/	-cus	2.f\	.	.	.
.	.	1G	i-	.	.	.	.
.	.	.	.	8e\	.	.	.
.	.	.	.	8d\	.	.	.
.	.	.	.	2e\	.	.	.
=27-	=27-	=27-	=27-	=27-	=27-	=27-	=27-
2FF/	-ſte	2F/	-ſte	2.f\	-ſte	1a	-ſte
*	*Xij	*	*	*	*	*	*Xij
2.F\	ve-	2.A/	ve-	.	.	.	.
.	.	.	.	8e\	.	.	.
.	.	.	.	8d\	.	.	.
.	.	.	.	1c	.	1r	.
4F\	-re	4A/	-re	.	.	.	.
2Eny\	non	2G/	non	.	.	.	.
=28-	=28-	=28-	=28-	=28-	=28-	=28-	=28-
2F\	eſt	2A/	eſt	00r	.	1r	.
2G\	hic	2B-\	hic	.	.	.	.
2.A\	a-	2.c\	a-	.	.	2r	.
.	.	.	.	.	.	2.a\	ve-
4A\	-li-	4c\	-li-	.	.	.	.
*	*	*custos:A	*	*	*	*	*
!	!	!LO:LB:g=original	!	!	!	!	!
=29-	=29-	=29-	=29-	=29-	=29-	=29-	=29-
*	*	*xywh-#333:1039,2267,3434,706	*	*	*	*	*
2F\	-ud	2A/	-ud	.	.	.	.
.	.	.	.	.	.	4a\	-re
1B-\	ni-	1d\	ni-	.	.	2f/	non
*	*	*	*	*	*	*custos:g	*
*	*	*	*	*	*	*xywh-#637:1130,2259,3392,698	*
!	!	!	!	!	!	!LO:LB:g=original	!
.	.	.	.	.	.	2g/	eſt
2A\	-ſi	2c\	-ſi	.	.	2a\	hic
=30-	=30-	=30-	=30-	=30-	=30-	=30-	=30-
1.G	do-	2B-\	do-	2r	.	2.b-\	a-
.	.	2d\	-mus	2.B-/	ve-	.	.
.	.	.	.	.	.	4b-\	-li-
.	.	1d	De-	.	.	2g/	-ud
.	.	.	.	4B-/	-re	.	.
2F\	-mus	.	.	2A/	non	1dd\	ni-
=31-	=31-	=31-	=31-	=31-	=31-	=31-	=31-
1E-X	De-	1G	-i	2B-/	eſt	.	.
.	.	.	.	2c/	hic	2cc\	ſi
*custos:D	*	*	*	*	*	*	*
*xywh-#181:1067,2271,3426,762	*	*	*	*	*	*	*
!LO:LB:g=original	!	!	!	!	!	!	!
1D	i	2r	.	2.d\	a-	2b-\	do-
.	.	2.A/	ve-	.	.	2a\	-mus
.	.	.	.	4d\	-li-	.	.
=32-	=32-	=32-	=32-	=32-	=32-	=32-	=32-
0r	.	.	.	2c/	-ud	2.cc\	De-
.	.	4A/	-re	.	.	.	.
.	.	2F/	non	1f\	ni-	.	.
.	.	.	.	.	.	4a\	.
.	.	2G/	eſt	.	.	2b-\	.
.	.	2A/	hic	2e\	-ſi	4a\	.
.	.	.	.	.	.	4g/	.
*	*	*	*	*custos:d	*	*	*
!	!	!	!	!LO:LB:g=original	!	!	!
=33-	=33-	=33-	=33-	=33-	=33-	=33-	=33-
*	*	*	*	*xywh-#485:1106,2774,3425,775	*	*	*
2r	.	2.B-\	a-	1.d	do-	4f/	.
.	.	.	.	.	.	4e/	.
2.BB-/	ve-	.	.	.	.	4d/	.
.	.	8A/	.	.	.	4e/	.
.	.	8G/	.	.	.	.	.
.	.	4F/	.	.	.	4f/	.
4BB-/	-re	4G/	.	.	.	4d/	.
2AA/	non	4A/	.	2c/	-mus	2.f/	.
.	.	4F/	.	.	.	.	.
=34-	=34-	=34-	=34-	=34-	=34-	=34-	=34-
2BB-/	eſt	2.G/	.	1B-	De-	.	.
.	.	.	.	.	.	8e/	.
.	.	.	.	.	.	8d/	.
2C/	hic	.	.	.	.	2e/	.
.	.	4G/	-li-	.	.	.	.
2.D/	a-	2F/	-ud	2A/	-i	0f	-i
.	.	1B-\	ni-	1d\	ni-	.	.
4D/	-li-	.	.	.	.	.	.
=35-	=35-	=35-	=35-	=35-	=35-	=35-	=35-
2BB-/	-ud	.	.	.	.	.	.
1F\	ni-	2A/	-ſi	2c/	-ſi	.	.
*	*	*custos:G	*	*	*	*	*
*	*	*xywh-#333:1008,2797,3465,737	*	*	*	*	*
!	!	!LO:LB:g=original	!	!	!	!	!
.	.	2.G/	do-	1c	do-	1r	.
2Eny\	-ſi	.	.	.	.	.	.
.	.	4A/	.	.	.	.	.
*	*	*	*	*	*	*custos:f	*
!	!	!	!	!	!	!LO:LB:g=original	!
=36-	=36-	=36-	=36-	=36-	=36-	=36-	=36-
*	*	*	*	*	*	*xywh-#637:1145,2818,3392,745	*
1.D	do-	2B-\	.	2.F/	-mus	2r	.
.	.	4A/	.	.	.	2.f/	ve-
.	.	4G/	.	4G/	.	.	.
.	.	4F/	.	1A	.	.	.
.	.	4D/	.	.	.	4f/	-re
2C/	-mus	1A\	.	.	.	2e/	non
=37-	=37-	=37-	=37-	=37-	=37-	=37-	=37-
1BB-	De-	.	.	1d	De-	2f/	eſt
.	.	1G/	mus	.	.	2g/	hic
1AA	-i	.	.	1c	-i	2.a\	a-
.	.	1F/	De-	.	.	.	.
.	.	.	.	.	.	4a\	-li-
=38-	=38-	=38-	=38-	=38-	=38-	=38-	=38-
1C	et	.	.	2r	.	1g	-ud
!	!	!	!	!LO:SIC:v:s=1e	!	!	!
.	.	2E/	-i	1e#X\	ni-	.	.
1C	por-	1r	.	.	.	2cc\	ni-
.	.	.	.	2d\	-ſi	2b-\	-ſi
=39-	=39-	=39-	=39-	=39-	=39-	=39-	=39-
1C	-ta	1c	et	2c/	do-	2a\	do-
.	.	.	.	2B-/	-mus	2g/	-mus
*custos:FF	*	*	*	*	*	*	*
*xywh-#181:1051,2869,3426,723	*	*	*	*	*	*	*
!LO:LB:g=original	!LO:SIC:s=cae-	!	!	!	!	!	!
4FF/	coe-	1c	por-	1A	De-	1f	De-
4GG/	.	.	.	.	.	.	.
4AA/	.	.	.	.	.	.	.
4BB-/	.	.	.	.	.	.	.
=40-	=40-	=40-	=40-	=40-	=40-	=40-	=40-
4C/	.	1c	-ta	1G	-i	1e	-i
4D/	.	.	.	.	.	.	.
4E\	.	.	.	.	.	.	.
4F\	.	.	.	.	.	.	.
!	!	!	!LO:SIC:s=cae-	!	!	!	!
1G	.	1B-	coe-	1r	.	1r	.
=41-	=41-	=41-	=41-	=41-	=41-	=41-	=41-
1D	-li	1A	-li	2r	.	2r	.
.	.	.	.	2.d\	ve-	2.f/	ve-
1r	.	1r	.	.	.	.	.
.	.	.	.	4d\	-re	4f/	-re
*	*	*	*	*custos:c	*	*	*
*	*	*	*	*xywh-#485:1098,3330,3425,736	*	*	*
!	!	!	!	!LO:LB:g=original	!	!	!
.	.	.	.	2c/	non	2e/	non
=42-	=42-	=42-	=42-	=42-	=42-	=42-	=42-
1r	.	1r	.	2d\	eſt	2f/	eſt
.	.	.	.	2eny\	hic	2g/	hic
2r	.	2r	.	2.f\	a-	2.a\	a-
2.F\	ve-	2.A/	ve-	.	.	.	.
.	.	.	.	4f\	-li-	4a\	-li-
*	*	*	*	*	*	*custos:cc	*
!	!	!	!	!	!	!LO:LB:g=original	!
=43-	=43-	=43-	=43-	=43-	=43-	=43-	=43-
*	*	*	*	*	*	*xywh-#637:1068,3338,3478,799	*
.	.	.	.	1c	-ud	1cc	-ud
4F\	-re	4A/	-re	.	.	.	.
2E\	non	2G/	non	.	.	.	.
2F\	eſt	2A/	eſt	1r	.	1r	.
2G\	hic	2B-\	hic	.	.	.	.
=44-	=44-	=44-	=44-	=44-	=44-	=44-	=44-
2.A\	a-	2.c\	a-	2r	.	2r	.
.	.	.	.	1a\	ni-	1cc\	ni-
4A\	-li-	4c\	-li-	.	.	.	.
*	*	*custos:A	*	*	*	*	*
*	*	*xywh-#333:985,3319,3457,760	*	*	*	*	*
!	!	!LO:LB:g=original	!	!	!	!	!
0F	-ud	0A	-ud	.	.	.	.
.	.	.	.	2g\	ſi	2b-\	-ſi
=45-	=45-	=45-	=45-	=45-	=45-	=45-	=45-
.	.	.	.	2f\	do-	2a\	do-
.	.	.	.	2e\	-mus	2g/	-mus
1.B-	ni-	2r	.	4d\	De-	0f	De-
.	.	.	.	4c/	.	.	.
.	.	1d\	ni-	4B-/	.	.	.
.	.	.	.	4c/	.	.	.
=46-	=46-	=46-	=46-	=46-	=46-	=46-	=46-
.	.	.	.	4d\	.	.	.
.	.	.	.	4e\	.	.	.
2A\	-ſi	2c\	ſi	4f\	.	.	.
.	.	.	.	4c/	.	.	.
*custos:G	*	*	*	*	*	*	*
*xywh-#181:1012,3403,3465,715	*	*	*	*	*	*	*
!LO:LB:g=original	!	!	!	!	!	!	!
2G\	do-	2B-\	do-	4e-X\	.	0g	-i
.	.	.	.	4d\	.	.	.
2F\	-mus	2A/	-mus	1d\	.	.	.
=47-	=47-	=47-	=47-	=47-	=47-	=47-	=47-
1E-X	De-	1G	De-	.	.	.	.
.	.	.	.	2c/	.	.	.
*	*	*	*	*custos:d	*	*	*
*	*	*	*	*xywh-#485:1130,3863,3385,736	*	*	*
!	!	!	!	!LO:LB:g=original	!	!	!
2D/	-i	1F	-i	4d\	-i	2r	.
.	.	.	.	8c/	.	.	.
.	.	.	.	8B-/	.	.	.
*	*	*	*	*	*	*	*ij
1F\	ni-	.	.	4A/	.	1a\	ni-
.	.	.	.	4B-/	.	.	.
=48-	=48-	=48-	=48-	=48-	=48-	=48-	=48-
.	.	1A	et	1c	.	.	.
2Eny\	-ſi	.	.	.	.	2g/	-ſi
1.D	do-	1A	por-	1r	.	1.f	do-
=49-	=49-	=49-	=49-	=49-	=49-	=49-	=49-
.	.	1A	-ta	0r	.	.	.
2C/	-mus	.	.	.	.	2e/	-mus
!	!	!	!LO:SIC:s=cae-	!	!	!	!
1BB-	De-	4D/	coe-	.	.	1d	De-
.	.	4E/	.	.	.	.	.
.	.	4F/	.	.	.	.	.
.	.	4G/	.	.	.	.	.
=50-	=50-	=50-	=50-	=50-	=50-	=50-	=50-
1AA	-i	4A/	.	2r	.	2c/	-i
.	.	4G/	.	.	.	.	.
*	*	*	*	*	*ij	*	*
.	.	4F/	.	1A/	ni-	1cc\	ni-
.	.	4E/	.	.	.	.	.
1D	et	2F/	.	.	.	.	.
.	.	2G/	-li	2G/	-ſi	2b-\	-ſi
=51-	=51-	=51-	=51-	=51-	=51-	=51-	=51-
1D	por-	2A/	ni-	2F/	do-	2a\	do-
.	.	1d\	-ſi	2B-/	-mus	1g\	-mus
1D	-ta	.	.	1A	De-	.	.
.	.	2c\	do-	.	.	2f#X/	De-
=52-	=52-	=52-	=52-	=52-	=52-	=52-	=52-
!	!LO:SIC:s=cae-	!	!	!	!	!	!
4GG/	cę-	1.B-	-mus	2G/	-i	1g	-i
*	*	*	*	*	*Xij	*	*Xij
4AA/	.	.	.	.	.	.	.
4BB-/	.	.	.	2d\	et	.	.
4C/	.	.	.	.	.	.	.
4D/	.	.	.	1.f	por-	1r	.
4E\	.	.	.	.	.	.	.
2F\	.	2A/	.	.	.	.	.
*	*	*custos:G	*	*	*	*	*
!	!	!LO:LB:g=original	!	!	!	!	!
=53-	=53-	=53-	=53-	=53-	=53-	=53-	=53-
*	*	*xywh-#333:1016,3842,3465,1406	*	*	*	*	*
1C	-li	1G	De-	.	.	1cc	et
.	.	.	.	2eny\	-ta	.	.
!	!	!	!	!	!LO:SIC:s=cae-	!	!
1r	.	1F	-i	4a\	cę-	1cc	por-
.	.	.	.	4g\	.	.	.
.	.	.	.	4f\	.	.	.
.	.	.	.	4e\	.	.	.
*custos:F	*	*	*	*	*	*custos:cc	*
!LO:LB:g=original	!	!	!	!	!	!LO:LB:g=original	!
=54-	=54-	=54-	=54-	=54-	=54-	=54-	=54-
*xywh-#181:1020,3914,3465,1359	*	*	*	*	*	*xywh-#637:1122,3843,3408,1428	*
1F	et	2r	.	2f\	.	1cc	-ta
.	.	2A/	et	2c/	li	.	.
*	*	*	*	*custos:f	*	*	*
*	*	*	*	*xywh-#485:1098,4396,3432,854	*	*	*
!	!	!	!	!LO:LB:g=original	!	!	!LO:SIC:s=cae-
1F	por-	1A	por-	2r	.	4fny/	cę-
.	.	.	.	.	.	4g/	.
.	.	.	.	2f\	et	4a\	.
.	.	.	.	.	.	4b-\	.
=55-	=55-	=55-	=55-	=55-	=55-	=55-	=55-
1F	-ta	1A	-ta	1f	por-	2.cc\	.
.	.	.	.	.	.	4a\	.
!	!LO:SIC:s=cae-	!	!LO:SIC:s=cae-	!	!	!	!
4BB-/	coe-	4D/	coe-	1f	-ta	4b-\	.
4C/	.	4E/	.	.	.	4a\	.
4D/	.	4F/	.	.	.	2.a\	.
4E\	.	4G/	.	.	.	.	.
=56-	=56-	=56-	=56-	=56-	=56-	=56-	=56-
!	!	!	!	!	!LO:SIC:s=cae-	!	!
4F\	.	4A/	.	1c	coe-	.	.
4G\	.	4B-\	.	.	.	8g/	.
.	.	.	.	.	.	8f/	.
2A\	.	1c\	.	.	.	4e/	.
.	.	.	.	.	.	4f/	.
1G	-li	.	.	1d	-li	1g	.
!	!	!LO:N:acc=#	!	!	!	!	!
.	.	2Bn\	li	.	.	.	.
=57-	=57-	=57-	=57-	=57-	=57-	=57-	=57-
*	*ij	*	*	*	*ij	*	*
!	!	!	!	!	!	!	!LO:SIC:s=-li
1C	et	2r	.	2r	.	1g	-[li]
*	*	*	*ij	*	*	*	*
.	.	2c\	et	2e\	et	.	.
1C	por-	1c	por-	1e	por-	2r	.
*	*	*	*	*	*	*	*ij
.	.	.	.	.	.	2g/	et
=58-	=58-	=58-	=58-	=58-	=58-	=58-	=58-
1C	-ta	1c	-ta	1e	-ta	1g	por-
!	!LO:SIC:s=cae-	!	!LO:SIC:s=cae-	!	!LO:SIC:s=cae-	!	!
4GG/	coe-	1B-y	coe-	0.d	coe-	1g	-ta
4AA/	.	.	.	.	.	.	.
4BB-/	.	.	.	.	.	.	.
4C/	.	.	.	.	.	.	.
=59-	=59-	=59-	=59-	=59-	=59-	=59-	=59-
!	!	!	!LO:SIC:s=-li.	!	!	!	!LO:SIC:s=cae-
0D	.	[0Al	-li	.	.	0f	cę-
*	*	*	*Xij	*	*	*	*
.	.	.	.	.	.	.	.
=60-	=60-	=60-	=60-	=60-	=60-	=60-	=60-
!	!LO:SIC:s=-li.	!	!	!	!LO:SIC:s=-li.	!	!LO:SIC:s=-li.
0AAl	-li	0A]	.	0c#Xl	-li	0el	-[li]
*	*Xij	*	*	*	*Xij	*	*Xij
==	==	==	==	==	==	==	==
*-	*-	*-	*-	*-	*-	*-	*-
!!!system-decoration: [*]
!!LO:MO:ori
!!!RDF**kern: l = terminal long
!!LO:MO:mod
!! !!!RDF**kern: i = editorial accidental
!!LO:MO:end
!!!filter-modern: shed -e "s/^custos:/Xcustos:/I" | shed -e "s/LO:N:/LO:n:$1/L" | shed -e "s/TX(.*):t=P:/tx$1:t=P:/LG" | sic -sq | modori -m | autostem -r | tie -s | humtr -p | shed -e "s/-//B" | autobeam
!!!ENC: Marta Opryszak
!!!END: 2022-07-06
!!!EED: Urszula Świątek
!!!EEV: 2022-07-28
!!!EED-revision: Andrzej Kubiczek
!!!EEV-revision: 2025-02-28
!!!ENC-modern: Andrzej Kubiczek
!!!END-modern: 2025-02-28
!!!ENC-iiif: Lidia Bialucha
!!!END-iiif: 2022-09-13
